svg/design/unfold_vertical_line.svg

<?xml version="1.0" encoding="UTF-8"?>
<svg width="24px" height="24px" viewBox="0 0 24 24" version="1.1" xmlns="http://www.w3.org/2000/svg" xmlns:xlink="http://www.w3.org/1999/xlink">
    <title>unfold_vertical_line</title>
    <g id="Icon" stroke="none" stroke-width="1" fill="none" fill-rule="evenodd">
        <g id="Design" transform="translate(-96.000000, -480.000000)" fill-rule="nonzero">
            <g id="unfold_vertical_line" transform="translate(96.000000, 480.000000)">
                <path d="M24,0 L24,24 L0,24 L0,0 L24,0 Z M12.5935,23.2578 L12.5819,23.2595 L12.5109,23.295 L12.4919,23.2987 L12.4767,23.295 L12.4057,23.2595 C12.3958,23.2564 12.387,23.259 12.3821,23.2649 L12.378,23.2758 L12.3609,23.7031 L12.3659,23.7235 L12.3769,23.7357 L12.4805,23.8097 L12.4953,23.8136 L12.5071,23.8097 L12.6107,23.7357 L12.6233,23.7197 L12.6267,23.7031 L12.6096,23.2758 C12.6076,23.2657 12.601,23.2593 12.5935,23.2578 Z M12.8584,23.1453 L12.8445,23.1473 L12.6598,23.2397 L12.6499,23.2499 L12.6472,23.2611 L12.6651,23.6906 L12.6699,23.7034 L12.6784,23.7105 L12.8793,23.8032 C12.8914,23.8069 12.9022,23.803 12.9078,23.7952 L12.9118,23.7812 L12.8777,23.1665 C12.8753,23.1546 12.8674,23.147 12.8584,23.1453 Z M12.143,23.1473 C12.1332,23.1424 12.1222,23.1453 12.1156,23.1526 L12.1099,23.1665 L12.0758,23.7812 C12.0751,23.7927 12.0828,23.8019 12.0926,23.8046 L12.1083,23.8032 L12.3092,23.7105 L12.3186,23.7024 L12.3225,23.6906 L12.3404,23.2611 L12.3372,23.2485 L12.3278,23.2397 L12.143,23.1473 Z" id="MingCute"></path>
                <path d="M4,11.0001 C3.44772,11.0001 3,11.4478 3,12.0001 C3,12.5523 3.44772,13.0001 4,13.0001 L5,13.0001 C5.55228,13.0001 6,12.5523 6,12.0001 C6,11.4478 5.55228,11.0001 5,11.0001 L4,11.0001 Z M9,11.0001 C8.44772,11.0001 8,11.4478 8,12.0001 C8,12.5523 8.44772,13.0001 9,13.0001 L10,13.0001 C10.5523,13.0001 11,12.5523 11,12.0001 C11,11.4478 10.5523,11.0001 10,11.0001 L9,11.0001 Z M13,12.0001 C13,11.4478 13.4477,11.0001 14,11.0001 L15,11.0001 C15.5523,11.0001 16,11.4478 16,12.0001 C16,12.5523 15.5523,13.0001 15,13.0001 L14,13.0001 C13.4477,13.0001 13,12.5523 13,12.0001 Z M19,11.0001 C18.4477,11.0001 18,11.4478 18,12.0001 C18,12.5523 18.4477,13.0001 19,13.0001 L20,13.0001 C20.5523,13.0001 21,12.5523 21,12.0001 C21,11.4478 20.5523,11.0001 20,11.0001 L19,11.0001 Z M11,18.4142 L9.87874,17.293 C9.48821,16.9024 8.85505,16.9024 8.46452,17.293 C8.074,17.6835 8.074,18.3166 8.46452,18.7072 L11.293,21.5356 C11.6835,21.9261 12.3166,21.9261 12.7072,21.5356 L15.5356,18.7072 C15.9261,18.3166 15.9261,17.6835 15.5356,17.293 C15.1451,16.9024 14.5119,16.9024 14.1214,17.293 L13,18.4143 L13,15.0001 C13,14.4478 12.5523,14.0001 12,14.0001 C11.4477,14.0001 11,14.4478 11,15.0001 L11,18.4142 Z M12,10.0001 C11.4477,10.0001 11,9.55234 11,9.00006 L11,5.5859 L9.87874,6.70717 C9.48821,7.09769 8.85505,7.09769 8.46452,6.70717 C8.074,6.31664 8.074,5.68348 8.46452,5.29295 L11.293,2.46452 C11.6835,2.074 12.3166,2.074 12.7072,2.46452 L15.5356,5.29295 C15.9261,5.68348 15.9261,6.31664 15.5356,6.70717 C15.1451,7.09769 14.5119,7.09769 14.1214,6.70717 L13,5.58579 L13,9.00006 C13,9.55234 12.5523,10.0001 12,10.0001 Z" id="形状" fill="#09244B"></path>
            </g>
        </g>
    </g>
</svg>

<svg xmlns="http://www.w3.org/2000/svg" width="24" height="24"><g fill="none" fill-rule="nonzero"><path d="M24 0v24H0V0h24ZM12.594 23.258l-.012.002-.071.035-.02.004-.014-.004-.071-.036c-.01-.003-.019 0-.024.006l-.004.01-.017.428.005.02.01.013.104.074.015.004.012-.004.104-.074.012-.016.004-.017-.017-.427c-.002-.01-.009-.017-.016-.018Zm.264-.113-.014.002-.184.093-.01.01-.003.011.018.43.005.012.008.008.201.092c.012.004.023 0 .029-.008l.004-.014-.034-.614c-.003-.012-.01-.02-.02-.022Zm-.715.002a.023.023 0 0 0-.027.006l-.006.014-.034.614c0 .012.007.02.017.024l.015-.002.201-.093.01-.008.003-.011.018-.43-.003-.012-.01-.01-.184-.092Z"/><path fill="#09244B" d="M4 11a1 1 0 1 0 0 2h1a1 1 0 0 0 0-2H4Zm5 0a1 1 0 1 0 0 2h1a1 1 0 0 0 0-2H9Zm4 1a1 1 0 0 1 1-1h1a1 1 0 1 1 0 2h-1a1 1 0 0 1-1-1Zm6-1a1 1 0 1 0 0 2h1a1 1 0 0 0 0-2h-1Zm-8 7.414-1.121-1.121a1 1 0 1 0-1.414 1.414l2.828 2.829a1 1 0 0 0 1.414 0l2.829-2.829a1 1 0 0 0-1.415-1.414L13 18.414V15a1 1 0 1 0-2 0v3.414ZM12 10a1 1 0 0 1-1-1V5.586L9.879 6.707a1 1 0 0 1-1.414-1.414l2.828-2.828a1 1 0 0 1 1.414 0l2.829 2.828a1 1 0 0 1-1.415 1.414L13 5.586V9a1 1 0 0 1-1 1Z"/></g></svg>
